assets/img/braze_icons/contrast-01.svg

<svg fill="none" height="24" viewBox="0 0 24 24" width="24" xmlns="http://www.w3.org/2000/svg"><g fill="#801ed7"><path clip-rule="evenodd" d="m13 3.05484c.1894.02091.377.04769.5625.08014.544.09516 1.0622-.26873 1.1573-.81275.0952-.54403-.2687-1.06218-.8127-1.15734-.6201-.10846-1.2574-.16489-1.9071-.16489-6.07513 0-11 4.92487-11 11 0 6.0751 4.92487 11 11 11 .6489 0 1.2855-.0563 1.9049-.1645.544-.0951.908-.6131.813-1.1572-.0951-.544-.6131-.908-1.1572-.813-.1849.0323-.3719.059-.5607.0799z" fill-rule="evenodd"/><path d="m16.9195 3.23454c.3172-.45206.9409-.56134 1.393-.24407 1.0492.73637 1.9637 1.65127 2.6997 2.70081.317.4522.2075 1.07581-.2447 1.39289s-1.0758.20755-1.3929-.24464c-.6027-.85948-1.3518-1.60898-2.2111-2.212-.452-.31726-.5613-.94093-.244-1.39299z"/><path d="m21.6779 9.28058c.544-.09513 1.0622.26877 1.1573.81282.1084.6199.1648 1.2571.1648 1.9066s-.0564 1.2867-.1648 1.9066c-.0951.544-.6133.908-1.1573.8128-.544-.0951-.9079-.6133-.8128-1.1573.0886-.5067.1349-1.0286.1349-1.5621s-.0463-1.0554-.1349-1.5621c-.0951-.54405.2688-1.06219.8128-1.15732z"/><path d="m20.7639 16.9223c.4519.3174.561.9411.2436 1.393-.7354 1.0472-1.6487 1.9601-2.6962 2.695-.4521.3173-1.0758.2079-1.393-.2442s-.2078-1.0758.2443-1.393c.8578-.6018 1.606-1.3497 2.2082-2.2072.3174-.452.9411-.561 1.3931-.2436z"/></g></svg>

<svg width="24" height="24" viewBox="0 0 24 24" fill="none" xmlns="http://www.w3.org/2000/svg">
<path fill-rule="evenodd" clip-rule="evenodd" d="M13 3.05484C13.1894 3.07575 13.377 3.10253 13.5625 3.13498C14.1065 3.23014 14.6247 2.86625 14.7198 2.32223C14.815 1.7782 14.4511 1.26005 13.9071 1.16489C13.287 1.05643 12.6497 1 12 1C5.92487 1 1 5.92487 1 12C1 18.0751 5.92487 23 12 23C12.6489 23 13.2855 22.9437 13.9049 22.8355C14.4489 22.7404 14.8129 22.2224 14.7179 21.6783C14.6228 21.1343 14.1048 20.7703 13.5607 20.8653C13.3758 20.8976 13.1888 20.9243 13 20.9452L13 3.05484Z" fill="#801ED7"/>
<path d="M16.9195 3.23454C17.2367 2.78248 17.8604 2.6732 18.3125 2.99047C19.3617 3.72684 20.2762 4.64174 21.0122 5.69128C21.3292 6.14348 21.2197 6.76709 20.7675 7.08417C20.3153 7.40125 19.6917 7.29172 19.3746 6.83953C18.7719 5.98005 18.0228 5.23055 17.1635 4.62753C16.7115 4.31027 16.6022 3.6866 16.9195 3.23454Z" fill="#801ED7"/>
<path d="M21.6779 9.28058C22.2219 9.18545 22.7401 9.54935 22.8352 10.0934C22.9436 10.7133 23 11.3505 23 12C23 12.6495 22.9436 13.2867 22.8352 13.9066C22.7401 14.4506 22.2219 14.8146 21.6779 14.7194C21.1339 14.6243 20.77 14.1061 20.8651 13.5621C20.9537 13.0554 21 12.5335 21 12C21 11.4665 20.9537 10.9446 20.8651 10.4379C20.77 9.89385 21.1339 9.37571 21.6779 9.28058Z" fill="#801ED7"/>
<path d="M20.7639 16.9223C21.2158 17.2397 21.3249 17.8634 21.0075 18.3153C20.2721 19.3625 19.3588 20.2754 18.3113 21.0103C17.8592 21.3276 17.2355 21.2182 16.9183 20.7661C16.6011 20.314 16.7105 19.6903 17.1626 19.3731C18.0204 18.7713 18.7686 18.0234 19.3708 17.1659C19.6882 16.7139 20.3119 16.6049 20.7639 16.9223Z" fill="#801ED7"/>
</svg>
